svgs/sharp-light/pause.svg

<svg xmlns="http://www.w3.org/2000/svg" viewBox="0 0 320 512"><!--! Font Awesome Pro 6.6.0 by @fontawesome - https://fontawesome.com License - https://fontawesome.com/license (Commercial License) Copyright 2024 Fonticons, Inc. --><path d="M32 96l0 320 80 0 0-320L32 96zM0 64l32 0 80 0 32 0 0 32 0 320 0 32-32 0-80 0L0 448l0-32L0 96 0 64zM208 96l0 320 80 0 0-320-80 0zM176 64l32 0 80 0 32 0 0 32 0 320 0 32-32 0-80 0-32 0 0-32 0-320 0-32z"/></svg>

<svg xmlns="http://www.w3.org/2000/svg" viewBox="0 0 320 512"><!--! Font Awesome Pro 6.4.2 by @fontawesome - https://fontawesome.com License - https://fontawesome.com/license (Commercial License) Copyright 2023 Fonticons, Inc. --><path d="M32 96V416h80V96H32zM0 64H32h80 32V96 416v32H112 32 0V416 96 64zM208 96V416h80V96H208zM176 64h32 80 32V96 416v32H288 208 176V416 96 64z"/></svg>
